apps/scalable/hyper.svg

<svg xmlns="http://www.w3.org/2000/svg" style="isolation:isolate" width="256" height="256"><defs><filter id="a" width="270.648" height="254.338" x="-7.32" y="2.95" filterUnits="userSpaceOnUse"><feGaussianBlur xmlns="http://www.w3.org/2000/svg" in="SourceGraphic" stdDeviation="4.294"/><feOffset xmlns="http://www.w3.org/2000/svg" dy="4" result="pf_100_offsetBlur"/><feFlood xmlns="http://www.w3.org/2000/svg" flood-opacity=".4"/><feComposite xmlns="http://www.w3.org/2000/svg" in2="pf_100_offsetBlur" operator="in" result="pf_100_dropShadow"/><feBlend xmlns="http://www.w3.org/2000/svg" in="SourceGraphic" in2="pf_100_dropShadow"/></filter></defs><g filter="url(#a)"><linearGradient id="b" x1=".5" x2=".5" y1="-.036" y2="1.036" gradientTransform="matrix(244.648 0 0 228.338 5.676 11.947)" gradientUnits="userSpaceOnUse"><stop offset="0%"/><stop offset="100%" stop-color="#333"/></linearGradient><path fill="url(#b)" d="M165.685 11.947c74.055 0 84.639 10.557 84.639 84.544v59.251c0 73.986-10.584 84.543-84.639 84.543h-75.37c-74.055 0-84.639-10.557-84.639-84.543V96.491c0-73.987 10.584-84.544 84.639-84.544h75.37z"/></g><path fill="#9B33AE" fill-rule="evenodd" d="M165.685 11.947c74.055 0 84.639 10.557 84.639 84.544v59.251c0 73.986-10.584 84.543-84.639 84.543h-75.37c-74.055 0-84.639-10.557-84.639-84.543V96.491c0-73.987 10.584-84.544 84.639-84.544h75.37zm.015 10.003c4.31-.01 8.61.04 12.92.13 3.8.08 7.6.23 11.4.45 3.3.19 6.6.46 9.89.82 2.82.31 5.63.72 8.43 1.24 2.35.43 4.68.99 6.98 1.66 1.91.56 3.78 1.25 5.6 2.06 1.52.69 2.98 1.5 4.37 2.43 1.22.82 2.37 1.77 3.42 2.81 1.04 1.05 1.99 2.19 2.82 3.42.93 1.38 1.74 2.84 2.42 4.36.81 1.81 1.51 3.68 2.07 5.59.67 2.29 1.23 4.62 1.66 6.97.52 2.79.93 5.59 1.24 8.41.36 3.29.63 6.58.82 9.89.22 3.79.37 7.58.45 11.38.09 4.3.14 8.6.13 12.91V155.75c.01 4.31-.04 8.61-.13 12.92-.08 3.79-.23 7.59-.45 11.38-.19 3.3-.46 6.59-.82 9.88-.31 2.82-.72 5.63-1.24 8.41-.43 2.35-.99 4.68-1.66 6.97-.56 1.91-1.26 3.78-2.07 5.59-.68 1.52-1.49 2.98-2.42 4.36-.83 1.23-1.78 2.37-2.82 3.42-1.05 1.05-2.2 1.99-3.42 2.82-1.39.93-2.85 1.74-4.37 2.42-1.82.81-3.69 1.5-5.6 2.06-2.3.68-4.63 1.23-6.98 1.67-2.8.51-5.61.93-8.43 1.23-3.29.36-6.59.64-9.89.82-3.8.22-7.6.37-11.4.45-4.31.1-8.61.14-12.92.14H90.3c-4.31 0-8.61-.04-12.92-.14-3.8-.08-7.6-.23-11.4-.45-3.3-.18-6.6-.46-9.89-.82-2.82-.3-5.63-.72-8.43-1.23-2.35-.44-4.68-.99-6.98-1.67-1.91-.56-3.78-1.25-5.6-2.06-1.52-.68-2.98-1.49-4.37-2.42-1.22-.83-2.37-1.77-3.42-2.82a23.736 23.736 0 0 1-2.82-3.42c-.93-1.38-1.74-2.84-2.42-4.36a45.64 45.64 0 0 1-2.07-5.59c-.67-2.29-1.23-4.62-1.66-6.97-.52-2.78-.93-5.59-1.24-8.41-.36-3.29-.63-6.58-.82-9.88-.22-3.79-.37-7.59-.45-11.38-.09-4.31-.14-8.61-.13-12.92V96.49v-.01c-.01-4.31.04-8.61.13-12.91.08-3.8.23-7.59.45-11.38.19-3.31.46-6.6.82-9.89.31-2.82.72-5.62 1.24-8.41.43-2.35.99-4.68 1.66-6.97a45.64 45.64 0 0 1 2.07-5.59c.68-1.52 1.49-2.98 2.42-4.36.83-1.23 1.78-2.37 2.82-3.42 1.05-1.04 2.2-1.99 3.42-2.81 1.39-.93 2.85-1.74 4.37-2.43 1.82-.81 3.69-1.5 5.6-2.06 2.3-.67 4.63-1.23 6.98-1.66 2.8-.52 5.61-.93 8.43-1.24 3.29-.36 6.59-.63 9.89-.82 3.8-.22 7.6-.37 11.4-.45 4.31-.09 8.61-.14 12.92-.13H165.7z"/><path fill="#FFF" d="M8.476 55.74C6.729 66.667 6.158 80.255 6.158 97.205v59.251c0 73.986 10.584 84.544 84.64 84.544h75.369c55.135 0 75.078-5.874 81.675-39.397L8.476 55.74z" opacity=".05"/><defs><filter id="c" width="64.228" height="24.416" x="71.92" y="123.27" filterUnits="userSpaceOnUse"><feGaussianBlur xmlns="http://www.w3.org/2000/svg" stdDeviation="3.138"/></filter></defs><g opacity=".5" filter="url(#c)"><linearGradient id="d" x1="1.003" x2="-2.005" y1="-1.148" y2="-1.148" gradientTransform="matrix(49.609 0 0 9.797 79.23 130.574)" gradientUnits="userSpaceOnUse"><stop offset="0%"/><stop offset="100%" stop-opacity="0"/></linearGradient><path fill="url(#d)" d="M79.23 130.574v9.797h49.609v-9.797H79.23z"/></g><path fill="#F2F2F2" d="M79.23 129.277v9.948h49.739v-9.948H79.23z"/><path fill-rule="evenodd" d="M61.767 65.195L28 95.825l14.472 7.961-9.648 28.943L66.591 102.1l-14.472-7.962 9.648-28.943z" opacity=".2"/><path fill="#FFDA64" fill-rule="evenodd" d="M61.767 60.371L28 91.001l14.472 7.961-9.648 28.943 33.767-30.629-14.472-7.962 9.648-28.943z"/><g opacity=".4"><linearGradient id="e" x1=".517" x2=".517" y2="1"><stop offset="0%" stop-color="#fff"/><stop offset="12.5%" stop-opacity=".098" stop-color="#fff"/><stop offset="92.5%" stop-opacity=".098"/><stop offset="100%" stop-opacity=".498"/></linearGradient><path fill="none" stroke="url(#e)" stroke-linecap="round" stroke-linejoin="round" stroke-width="4.077" d="M165.685 11.947c74.055 0 84.639 10.557 84.639 84.544v59.251c0 73.986-10.584 84.543-84.639 84.543h-75.37c-74.055 0-84.639-10.557-84.639-84.543V96.491c0-73.987 10.584-84.544 84.639-84.544h75.37z" vector-effect="non-scaling-stroke"/></g></svg>

<svg xmlns="http://www.w3.org/2000/svg" style="isolation:isolate" width="256" height="256" viewBox="0 0 256 256">
 <defs>
  <filter id="EkISivdybZ2kUgBEYJMuCw2XJeufBu4q" width="270.648" height="254.338" x="-7.32" y="2.95" filterUnits="userSpaceOnUse">
   <feGaussianBlur xmlns="http://www.w3.org/2000/svg" in="SourceGraphic" stdDeviation="4.294"/>
   <feOffset xmlns="http://www.w3.org/2000/svg" dx="0" dy="4" result="pf_100_offsetBlur"/>
   <feFlood xmlns="http://www.w3.org/2000/svg" flood-opacity=".4"/>
   <feComposite xmlns="http://www.w3.org/2000/svg" in2="pf_100_offsetBlur" operator="in" result="pf_100_dropShadow"/>
   <feBlend xmlns="http://www.w3.org/2000/svg" in="SourceGraphic" in2="pf_100_dropShadow" mode="normal"/>
  </filter>
 </defs>
 <g filter="url(#EkISivdybZ2kUgBEYJMuCw2XJeufBu4q)">
  <linearGradient id="_lgradient_245" x1=".5" x2=".5" y1="-.036" y2="1.036" gradientTransform="matrix(244.648,0,0,228.338,5.676,11.947)" gradientUnits="userSpaceOnUse">
   <stop offset="0%" style="stop-color:rgb(0,0,0)"/>
   <stop offset="100%" style="stop-color:rgb(51,51,51)"/>
  </linearGradient>
  <path fill="url(#_lgradient_245)" d="M 165.685 11.947 C 239.74 11.947 250.324 22.504 250.324 96.491 L 250.324 155.742 C 250.324 229.728 239.74 240.285 165.685 240.285 L 90.315 240.285 C 16.26 240.285 5.676 229.728 5.676 155.742 L 5.676 96.491 C 5.676 22.504 16.26 11.947 90.315 11.947 L 165.685 11.947 Z"/>
 </g>
 <path fill="#9B33AE" fill-rule="evenodd" d="M 165.685 11.947 C 239.74 11.947 250.324 22.504 250.324 96.491 L 250.324 155.742 C 250.324 229.728 239.74 240.285 165.685 240.285 L 90.315 240.285 C 16.26 240.285 5.676 229.728 5.676 155.742 L 5.676 96.491 C 5.676 22.504 16.26 11.947 90.315 11.947 L 165.685 11.947 Z M 165.7 21.95 C 170.01 21.94 174.31 21.99 178.62 22.08 C 182.42 22.16 186.22 22.31 190.02 22.53 C 193.32 22.72 196.62 22.99 199.91 23.35 C 202.73 23.66 205.54 24.07 208.34 24.59 C 210.69 25.02 213.02 25.58 215.32 26.25 C 217.23 26.81 219.1 27.5 220.92 28.31 C 222.44 29 223.9 29.81 225.29 30.74 C 226.51 31.56 227.66 32.51 228.71 33.55 C 229.75 34.6 230.7 35.74 231.53 36.97 C 232.46 38.35 233.27 39.81 233.95 41.33 C 234.76 43.14 235.46 45.01 236.02 46.92 C 236.69 49.21 237.25 51.54 237.68 53.89 C 238.2 56.68 238.61 59.48 238.92 62.3 C 239.28 65.59 239.55 68.88 239.74 72.19 C 239.96 75.98 240.11 79.77 240.19 83.57 C 240.28 87.87 240.33 92.17 240.32 96.48 C 240.32 96.48 240.32 96.49 240.32 96.49 L 240.32 155.74 C 240.32 155.75 240.32 155.75 240.32 155.75 C 240.33 160.06 240.28 164.36 240.19 168.67 C 240.11 172.46 239.96 176.26 239.74 180.05 C 239.55 183.35 239.28 186.64 238.92 189.93 C 238.61 192.75 238.2 195.56 237.68 198.34 C 237.25 200.69 236.69 203.02 236.02 205.31 C 235.46 207.22 234.76 209.09 233.95 210.9 C 233.27 212.42 232.46 213.88 231.53 215.26 C 230.7 216.49 229.75 217.63 228.71 218.68 C 227.66 219.73 226.51 220.67 225.29 221.5 C 223.9 222.43 222.44 223.24 220.92 223.92 C 219.1 224.73 217.23 225.42 215.32 225.98 C 213.02 226.66 210.69 227.21 208.34 227.65 C 205.54 228.16 202.73 228.58 199.91 228.88 C 196.62 229.24 193.32 229.52 190.02 229.7 C 186.22 229.92 182.42 230.07 178.62 230.15 C 174.31 230.25 170.01 230.29 165.7 230.29 C 165.69 230.29 165.69 230.29 165.68 230.29 L 90.32 230.29 C 90.31 230.29 90.31 230.29 90.3 230.29 C 85.99 230.29 81.69 230.25 77.38 230.15 C 73.58 230.07 69.78 229.92 65.98 229.7 C 62.68 229.52 59.38 229.24 56.09 228.88 C 53.27 228.58 50.46 228.16 47.66 227.65 C 45.31 227.21 42.98 226.66 40.68 225.98 C 38.77 225.42 36.9 224.73 35.08 223.92 C 33.56 223.24 32.1 222.43 30.71 221.5 C 29.49 220.67 28.34 219.73 27.29 218.68 C 26.25 217.63 25.3 216.49 24.47 215.26 C 23.54 213.88 22.73 212.42 22.05 210.9 C 21.24 209.09 20.55 207.22 19.98 205.31 C 19.31 203.02 18.75 200.69 18.32 198.34 C 17.8 195.56 17.39 192.75 17.08 189.93 C 16.72 186.64 16.45 183.35 16.26 180.05 C 16.04 176.26 15.89 172.46 15.81 168.67 C 15.72 164.36 15.67 160.06 15.68 155.75 C 15.68 155.75 15.68 155.75 15.68 155.74 L 15.68 96.49 C 15.68 96.49 15.68 96.48 15.68 96.48 C 15.67 92.17 15.72 87.87 15.81 83.57 C 15.89 79.77 16.04 75.98 16.26 72.19 C 16.45 68.88 16.72 65.59 17.08 62.3 C 17.39 59.48 17.8 56.68 18.32 53.89 C 18.75 51.54 19.31 49.21 19.98 46.92 C 20.55 45.01 21.24 43.14 22.05 41.33 C 22.73 39.81 23.54 38.35 24.47 36.97 C 25.3 35.74 26.25 34.6 27.29 33.55 C 28.34 32.51 29.49 31.56 30.71 30.74 C 32.1 29.81 33.56 29 35.08 28.31 C 36.9 27.5 38.77 26.81 40.68 26.25 C 42.98 25.58 45.31 25.02 47.66 24.59 C 50.46 24.07 53.27 23.66 56.09 23.35 C 59.38 22.99 62.68 22.72 65.98 22.53 C 69.78 22.31 73.58 22.16 77.38 22.08 C 81.69 21.99 85.99 21.94 90.3 21.95 C 90.31 21.95 90.31 21.95 90.32 21.95 L 165.68 21.95 C 165.69 21.95 165.69 21.95 165.7 21.95 Z"/>
 <g opacity=".05">
  <path fill="#FFFFFF" d="M 8.476 55.74 C 6.729 66.667 6.158 80.255 6.158 97.205 L 6.158 156.456 C 6.158 230.442 16.742 241 90.798 241 L 166.167 241 C 221.302 241 241.245 235.126 247.842 201.603 L 8.476 55.74 Z"/>
 </g>
 <g>
  <defs>
   <filter id="OzD6rHl0j56cBdFkVhKg4UM9ynVTxPVr" width="64.228" height="24.416" x="71.92" y="123.27" filterUnits="userSpaceOnUse">
    <feGaussianBlur xmlns="http://www.w3.org/2000/svg" stdDeviation="3.138"/>
   </filter>
  </defs>
  <g opacity=".5" filter="url(#OzD6rHl0j56cBdFkVhKg4UM9ynVTxPVr)">
   <linearGradient id="_lgradient_246" x1="1.003" x2="-2.005" y1="-1.148" y2="-1.148" gradientTransform="matrix(49.609,0,0,9.797,79.23,130.574)" gradientUnits="userSpaceOnUse">
    <stop offset="0%" style="stop-color:rgb(0,0,0)"/>
    <stop offset="100%" stop-opacity="0" style="stop-color:rgb(0,0,0)"/>
   </linearGradient>
   <path fill="url(#_lgradient_246)" d="M 79.23 130.574 L 79.23 140.371 L 128.839 140.371 L 128.839 130.574 L 79.23 130.574 Z"/>
  </g>
  <path fill="#F2F2F2" d="M 79.23 129.277 L 79.23 139.225 L 128.969 139.225 L 128.969 129.277 L 79.23 129.277 Z"/>
  <g opacity=".2">
   <path fill-rule="evenodd" d="M 61.767 65.195 L 28 95.825 L 42.472 103.786 L 32.824 132.729 L 66.591 102.1 L 52.119 94.138 L 61.767 65.195 Z"/>
  </g>
  <path fill="#FFDA64" fill-rule="evenodd" d="M 61.767 60.371 L 28 91.001 L 42.472 98.962 L 32.824 127.905 L 66.591 97.276 L 52.119 89.314 L 61.767 60.371 Z"/>
 </g>
 <g opacity=".4">
  <linearGradient id="_lgradient_247" x1=".517" x2=".517" y1="0" y2="1">
   <stop offset="0%" style="stop-color:rgb(255,255,255)"/>
   <stop offset="12.5%" stop-opacity=".098" style="stop-color:rgb(255,255,255)"/>
   <stop offset="92.5%" stop-opacity=".098" style="stop-color:rgb(0,0,0)"/>
   <stop offset="100%" stop-opacity=".498" style="stop-color:rgb(0,0,0)"/>
  </linearGradient>
  <path fill="none" stroke="url(#_lgradient_247)" stroke-linecap="round" stroke-linejoin="round" stroke-width="4.077" d="M 165.685 11.947 C 239.74 11.947 250.324 22.504 250.324 96.491 L 250.324 155.742 C 250.324 229.728 239.74 240.285 165.685 240.285 L 90.315 240.285 C 16.26 240.285 5.676 229.728 5.676 155.742 L 5.676 96.491 C 5.676 22.504 16.26 11.947 90.315 11.947 L 165.685 11.947 Z" vector-effect="non-scaling-stroke"/>
 </g>
</svg>
